X:549
T:Moneymusk
R:Reel
O:Probably a version from Teelin, County Donegal.
M:4/4
L:1/8
K:A
af || eAcA e2 (3agf | eAdc BEGB | eAcA e3a | fdBa (3gfe (3agf | eAcAe2(3agf |\
eAcA Bcdf | eccB cdea | fdBc defg || a2ea ceA2 | aAce fBB2 | a2ea ceA2 |\
dcBc defg | a2ea ceA2 | aAce fBBe | (3agf (3gfe (3fed (3cBA | (3fga (3gfe fgaf
||

